assets/icons/folder_icons/folder-component-open.svg

<?xml version="1.0" encoding="UTF-8"?><svg id="Layer_23_copy_6" xmlns="http://www.w3.org/2000/svg" xmlns:xlink="http://www.w3.org/1999/xlink" viewBox="0 0 14 14"><defs><style>.cls-1{fill:#ff6700;}.cls-2{opacity:.3;}.cls-2,.cls-3{isolation:isolate;}.cls-4{fill:#40a0ff;}.cls-4,.cls-5{fill-rule:evenodd;}.cls-6{fill:url(#linear-gradient);}.cls-3{fill:url(#radial-gradient);opacity:.711;}</style><radialGradient id="radial-gradient" cx="111.1906" cy="-163.7241" fx="111.1906" fy="-163.7241" r="1.5875" gradientTransform="translate(-171.704 -561.0521) rotate(33.6901) scale(4.1287 -2.2712)" gradientUnits="userSpaceOnUse"><stop offset="0" stop-color="#000"/><stop offset="1" stop-color="#000" stop-opacity="0"/></radialGradient><linearGradient id="linear-gradient" x1="72.2902" y1="-228.1004" x2="72.8194" y2="-228.1004" gradientTransform="translate(-268.2229 -853.1116) scale(3.7795 -3.7795)" gradientUnits="userSpaceOnUse"><stop offset="0" stop-color="#000"/><stop offset="1" stop-color="#000" stop-opacity="0"/></linearGradient></defs><path id="folder" class="cls-1" d="m0-.0056v12l4.1131,1.9355c.3105.1468.681.0135.8275-.2976.0393-.0834.0596-.1746.0594-.2668v-2.3711h6V.9944c-.004-.745-.4086-.9893-1-1H0Z"/><path id="folder_shadow" class="cls-2" d="m-.0179-.0056l4.0848,1.5879c.5625.2187.9331.7603.9331,1.3638v8.0482h6V.9944c-.004-.745-.4093-.9893-1.0016-1H-.0179Z"/><path id="flap_shadow" class="cls-3" d="m10,10.9944c.7057-.0798,1.0812-.3798,1-.9844v-5.0156c.6647-.0018.998-.3352,1-1V.9944c.0053-.6399-.3093-.9903-1-1H0v11h10Z"/><g id="Layer_90_copy"><path class="cls-5" d="m7.0024,13.999c-1.104,0-2.0024-.8984-2.0024-2.002v-.2656c-.2944.1709-.6362.2686-1,.2686-1.103,0-2-.8975-2-2v-1c0-1.1025.897-2,2-2,.3638,0,.7056.0977,1,.2686v-.2686c0-1.1025.897-2,2-2h.2686c-.1709-.2939-.2686-.6357-.2686-1,0-1.1025.897-2,2-2h1c1.103,0,2,.8975,2,2,0,.3643-.0977.7061-.2686,1h.27c1.1021,0,1.9985.8965,1.9985,1.998v5.0039c0,1.1016-.8965,1.998-1.9985,1.998l-4.999-.001Z"/><path class="cls-4" d="m6,9v-2c0-.5523.4477-1,1-1h2v-1h0c-.5523,0-1-.4477-1-1h0c0-.5523.4477-1,1-1h1c.5523,0,1,.4477,1,1h0c0,.5523-.4477,1-1,1h0v1h2.0016c.5514,0,.9984.447.9984.9984v1.0016s-1.0152,0-1.0152,0c-.5439,0-.9848.4409-.9848.9848v1.0304c0,.5439.4409.9848.9848.9848h1.0152v1.0015c0,.5514-.4471.9985-.9985.9984h-1.0015v-1.0041c0-.5502-.446-.9962-.9962-.9962h-1.0076c-.5502,0-.9962.446-.9962.9962v1.0037s-.9977-.0001-.9977-.0001c-.5536,0-1.0023-.4488-1.0023-1.0024v-1.997h-1c0,.5523-.4477,1-1,1h0c-.5523,0-1-.4477-1-1v-1c0-.5523.4477-1,1-1h0c.5523,0,1,.4477,1,1h1Z"/></g><path id="icon_shadow" class="cls-6" d="m5,7l2-2v8h-2v-6Z"/><path id="flap" class="cls-1" d="m5,2.9456c.0005-.6031-.3694-1.1446-.9315-1.3632L0,0v11.994l4.1131,1.9355c.3105.1468.681.0135.8275-.2976.033-.0701.0446-.1472.0499-.2242l.0095-10.4621Z"/></svg>

<svg xmlns="http://www.w3.org/2000/svg" id="Layer_23_copy_6" viewBox="0 0 14 14"><defs><radialGradient id="radial-gradient" cx="111.191" cy="-163.724" r="1.587" fx="111.191" fy="-163.724" gradientTransform="matrix(3.43528 2.2902 1.25984 -1.88975 -171.704 -561.052)" gradientUnits="userSpaceOnUse"><stop offset="0"/><stop offset="1" stop-opacity="0"/></radialGradient><linearGradient id="linear-gradient" x1="72.29" x2="72.819" y1="-228.1" y2="-228.1" gradientTransform="matrix(3.7795 0 0 -3.7795 -268.223 -853.112)" gradientUnits="userSpaceOnUse"><stop offset="0"/><stop offset="1" stop-opacity="0"/></linearGradient><style>.cls-1{fill:#ff6700}</style></defs><path id="folder" d="M0-.006v12l4.113 1.936A.62.62 0 0 0 5 13.366v-2.372h6v-10c-.004-.745-.409-.989-1-1z" class="cls-1"/><path id="folder_shadow" d="m-.018-.006 4.085 1.588c.562.219.933.76.933 1.364v8.048h6v-10c-.004-.745-.41-.989-1.002-1z" opacity=".3" style="isolation:isolate"/><path id="flap_shadow" fill="url(#radial-gradient)" d="M10 10.994c.706-.08 1.081-.38 1-.984V4.994q.997-.002 1-1v-3c.005-.64-.31-.99-1-1H0v11z" opacity=".711" style="isolation:isolate"/><g id="Layer_90_copy"><path fill-rule="evenodd" d="M7.002 13.999A2.005 2.005 0 0 1 5 11.997v-.266A2.002 2.002 0 0 1 2 10V9a2.002 2.002 0 0 1 3-1.731V7c0-1.102.897-2 2-2h.269A2.002 2.002 0 0 1 9 2h1a2.002 2.002 0 0 1 1.731 3h.27A2 2 0 0 1 14 6.998v5.004A2 2 0 0 1 12 14z"/><path fill="#40a0ff" fill-rule="evenodd" d="M6 9V7a1 1 0 0 1 1-1h2V5a1 1 0 1 1 0-2h1a1 1 0 1 1 0 2v1h2.002c.551 0 .998.447.998.998V8h-1.015a.985.985 0 0 0-.985.985v1.03c0 .544.44.985.985.985H13v1.002a1 1 0 0 1-.998.998H11v-1.004a.996.996 0 0 0-.996-.996H8.996a.996.996 0 0 0-.996.996V13h-.998A1 1 0 0 1 6 11.996V10H5a1 1 0 1 1-2 0V9a1 1 0 1 1 2 0z"/></g><path id="icon_shadow" fill="url(#linear-gradient)" d="m5 7 2-2v8H5z"/><path id="flap" d="M5 2.946c0-.603-.37-1.145-.931-1.364L0 0v11.994l4.113 1.936c.31.146.681.013.828-.298a.6.6 0 0 0 .05-.224z" class="cls-1"/></svg>
